flaticon/dialogue/chat-14.svg

<svg xmlns="http://www.w3.org/2000/svg" width="32" height="32" viewBox="0 0 24 24">
    <path d="M 22.359375 14.816406 C 23.433594 13.308594 24 11.566406 24 9.765625 C 24 4.601562 19.335938 0.398438 13.601562 0.398438 C 9.652344 0.398438 6 2.457031 4.261719 5.644531 C 1.679688 7.351562 0 10.101562 0 13.199219 C 0 15 0.566406 16.742188 1.640625 18.25 C 1.4375 20.480469 0.898438 22.136719 0.117188 22.917969 C -0.00390625 23.039062 -0.0351562 23.222656 0.0429688 23.378906 C 0.109375 23.515625 0.25 23.601562 0.398438 23.601562 C 0.417969 23.601562 0.4375 23.597656 0.457031 23.597656 C 0.59375 23.578125 3.828125 23.109375 6.183594 21.761719 C 7.515625 22.296875 8.933594 22.566406 10.402344 22.566406 C 13.808594 22.566406 16.84375 21.078125 18.738281 18.789062 C 20.945312 19.785156 23.433594 20.144531 23.542969 20.160156 C 23.5625 20.164062 23.582031 20.164062 23.601562 20.164062 C 23.75 20.164062 23.890625 20.082031 23.957031 19.945312 C 24.035156 19.789062 24.003906 19.605469 23.882812 19.484375 C 23.101562 18.703125 22.5625 17.046875 22.359375 14.816406 Z M 10.398438 21.765625 C 9.242188 21.765625 8.121094 21.582031 7.054688 21.226562 C 8.386719 20.390625 8.390625 20.324219 8.386719 20.097656 C 8.386719 19.957031 8.3125 19.824219 8.191406 19.753906 C 8.011719 19.644531 7.78125 19.695312 7.660156 19.863281 C 7.464844 20.015625 6.660156 20.53125 5.945312 20.972656 C 4.464844 21.867188 2.484375 22.382812 1.320312 22.625 C 2.039062 21.355469 2.335938 19.574219 2.453125 18.171875 C 2.460938 18.074219 2.433594 17.976562 2.375 17.898438 C 1.34375 16.503906 0.800781 14.875 0.800781 13.199219 C 0.800781 10.3125 2.410156 7.757812 4.871094 6.203125 C 5.027344 6.105469 5.183594 6.011719 5.347656 5.921875 C 5.382812 5.902344 5.414062 5.882812 5.449219 5.863281 C 5.621094 5.773438 5.792969 5.6875 5.964844 5.605469 C 6.027344 5.578125 6.09375 5.546875 6.15625 5.519531 C 6.332031 5.441406 6.507812 5.367188 6.691406 5.300781 C 6.753906 5.277344 6.820312 5.253906 6.882812 5.230469 C 7.023438 5.183594 7.167969 5.136719 7.308594 5.09375 C 7.378906 5.070312 7.445312 5.050781 7.515625 5.03125 C 7.699219 4.976562 7.890625 4.929688 8.082031 4.890625 C 8.148438 4.875 8.21875 4.859375 8.289062 4.847656 C 8.457031 4.8125 8.625 4.78125 8.796875 4.757812 C 8.839844 4.75 8.882812 4.742188 8.929688 4.734375 C 9.136719 4.707031 9.347656 4.6875 9.558594 4.667969 C 9.617188 4.664062 9.675781 4.660156 9.738281 4.65625 C 9.953125 4.644531 10.167969 4.636719 10.382812 4.636719 C 10.390625 4.636719 10.394531 4.632812 10.402344 4.632812 C 15.363281 4.632812 19.457031 8.011719 19.953125 12.324219 C 19.984375 12.613281 20 12.90625 20 13.199219 C 20 13.394531 19.988281 13.585938 19.976562 13.777344 C 19.972656 13.828125 19.96875 13.875 19.960938 13.925781 C 19.945312 14.105469 19.925781 14.28125 19.894531 14.457031 C 19.894531 14.46875 19.890625 14.484375 19.890625 14.5 C 19.859375 14.683594 19.816406 14.863281 19.773438 15.042969 C 19.761719 15.097656 19.746094 15.152344 19.730469 15.207031 C 19.6875 15.367188 19.640625 15.523438 19.589844 15.679688 C 19.574219 15.722656 19.558594 15.761719 19.546875 15.800781 C 19.492188 15.953125 19.429688 16.105469 19.367188 16.253906 C 19.339844 16.316406 19.316406 16.375 19.289062 16.433594 C 19.214844 16.589844 19.140625 16.746094 19.058594 16.898438 C 19.035156 16.941406 19.007812 16.984375 18.984375 17.027344 C 18.910156 17.15625 18.835938 17.285156 18.757812 17.410156 C 18.722656 17.464844 18.6875 17.519531 18.652344 17.574219 C 18.550781 17.71875 18.449219 17.867188 18.339844 18.007812 C 16.613281 20.273438 13.699219 21.765625 10.398438 21.765625 Z M 19.238281 18.136719 C 19.253906 18.113281 19.269531 18.085938 19.285156 18.0625 C 19.378906 17.925781 19.464844 17.789062 19.550781 17.648438 C 19.601562 17.566406 19.644531 17.480469 19.691406 17.398438 C 19.742188 17.3125 19.785156 17.226562 19.832031 17.140625 C 19.875 17.054688 19.917969 16.972656 19.957031 16.886719 C 20.015625 16.765625 20.070312 16.644531 20.121094 16.519531 C 20.164062 16.421875 20.203125 16.320312 20.242188 16.222656 C 20.285156 16.109375 20.324219 15.996094 20.363281 15.882812 C 20.386719 15.808594 20.414062 15.730469 20.433594 15.65625 C 20.472656 15.53125 20.507812 15.402344 20.539062 15.277344 C 20.554688 15.21875 20.570312 15.164062 20.582031 15.105469 C 20.625 14.925781 20.660156 14.742188 20.6875 14.5625 C 20.699219 14.503906 20.707031 14.445312 20.714844 14.390625 C 20.734375 14.246094 20.75 14.105469 20.761719 13.960938 C 20.769531 13.902344 20.773438 13.84375 20.777344 13.785156 C 20.789062 13.59375 20.800781 13.398438 20.800781 13.199219 C 20.800781 8.035156 16.136719 3.835938 10.398438 3.835938 C 10.378906 3.835938 10.355469 3.835938 10.332031 3.835938 C 10.164062 3.835938 10 3.839844 9.832031 3.847656 C 9.757812 3.851562 9.679688 3.859375 9.601562 3.863281 C 9.492188 3.871094 9.382812 3.878906 9.273438 3.890625 C 9.183594 3.898438 9.089844 3.910156 9 3.921875 C 8.910156 3.933594 8.816406 3.945312 8.726562 3.957031 C 8.625 3.972656 8.527344 3.988281 8.425781 4.003906 C 8.347656 4.019531 8.269531 4.035156 8.191406 4.046875 C 8.085938 4.070312 7.980469 4.089844 7.871094 4.117188 C 7.808594 4.128906 7.742188 4.144531 7.679688 4.160156 C 7.5625 4.191406 7.449219 4.21875 7.332031 4.25 C 7.292969 4.261719 7.253906 4.273438 7.210938 4.285156 C 6.785156 4.410156 6.371094 4.558594 5.964844 4.730469 C 5.9375 4.742188 5.910156 4.753906 5.878906 4.765625 C 5.84375 4.78125 5.808594 4.796875 5.769531 4.8125 C 7.554688 2.582031 10.472656 1.199219 13.601562 1.199219 C 18.894531 1.199219 23.199219 5.042969 23.199219 9.765625 C 23.199219 11.441406 22.65625 13.066406 21.625 14.464844 C 21.566406 14.542969 21.539062 14.640625 21.546875 14.738281 C 21.664062 16.140625 21.960938 17.921875 22.679688 19.191406 C 21.804688 19.007812 20.472656 18.671875 19.238281 18.136719 Z M 19.238281 18.136719"/>
</svg>

<svg xmlns="http://www.w3.org/2000/svg" width="32" height="32" viewBox="0 0 24 24">
    <path d="M22.36 14.816c1.074-1.507 1.64-3.25 1.64-5.05C24 4.602 19.336.398 13.602.398 9.652.398 6 2.457 4.262 5.645 1.68 7.352 0 10.102 0 13.199 0 15 .566 16.742 1.64 18.25c-.202 2.23-.742 3.887-1.523 4.668a.397.397 0 0 0-.074.46.398.398 0 0 0 .355.224c.02 0 .04-.004.059-.004.137-.02 3.371-.489 5.727-1.836 1.332.535 2.75.804 4.218.804 3.407 0 6.442-1.488 8.336-3.777 2.207.996 4.696 1.356 4.805 1.371.02.004.039.004.059.004a.397.397 0 0 0 .281-.68c-.781-.78-1.32-2.437-1.524-4.668zm-11.962 6.95c-1.156 0-2.277-.184-3.343-.54 1.332-.835 1.336-.902 1.332-1.128a.398.398 0 0 0-.196-.344.4.4 0 0 0-.53.11c-.196.152-1 .667-1.716 1.109-1.48.894-3.46 1.41-4.625 1.652.72-1.27 1.016-3.05 1.133-4.453a.402.402 0 0 0-.078-.274C1.344 16.504.801 14.875.801 13.2c0-2.886 1.61-5.441 4.07-6.996.156-.098.313-.191.477-.281.035-.02.066-.04.101-.059.172-.09.344-.176.516-.258l.191-.085c.176-.079.352-.153.535-.22.063-.023.13-.046.192-.07a17.927 17.927 0 0 1 .633-.199c.183-.054.375-.101.566-.14.066-.016.137-.032.207-.043.168-.035.336-.067.508-.09l.133-.024c.207-.027.418-.046.629-.066l.18-.012c.214-.011.429-.02.644-.02.008 0 .012-.003.02-.003 4.96 0 9.054 3.379 9.55 7.691.031.29.047.582.047.875 0 .196-.012.387-.023.578-.004.051-.008.098-.016.149-.016.18-.035.355-.066.531 0 .012-.004.027-.004.043-.032.184-.075.363-.118.543a9.425 9.425 0 0 1-.184.637c-.015.043-.03.082-.042.12a9.102 9.102 0 0 1-.18.454c-.027.062-.05.121-.078.18-.074.156-.148.312-.23.464-.024.043-.051.086-.075.13-.074.128-.148.257-.226.382l-.106.164c-.101.145-.203.293-.312.434-1.727 2.265-4.64 3.758-7.942 3.758zm8.84-3.63c.016-.023.032-.05.047-.073a9.29 9.29 0 0 0 .266-.415c.05-.082.094-.168.14-.25.051-.085.094-.171.141-.257.043-.086.086-.168.125-.254a6.18 6.18 0 0 0 .164-.367c.043-.098.082-.2.121-.297.043-.114.082-.227.121-.34.024-.074.051-.153.07-.227.04-.125.075-.254.106-.379a6.651 6.651 0 0 0 .148-.715c.012-.058.02-.117.028-.171a8.02 8.02 0 0 0 .047-.43c.008-.059.011-.117.015-.176.012-.191.024-.387.024-.586 0-5.164-4.664-9.363-10.403-9.363h-.066c-.168 0-.332.004-.5.012-.074.004-.152.011-.23.015-.11.008-.22.016-.329.028-.09.007-.183.02-.273.03-.09.013-.184.024-.273.036l-.301.047c-.078.016-.156.031-.235.043-.105.023-.21.043-.32.07a3.366 3.366 0 0 0-.191.043l-.348.09a11.519 11.519 0 0 0-1.453.516l-.11.046C7.556 2.583 10.474 1.2 13.603 1.2c5.293 0 9.597 3.844 9.597 8.567 0 1.675-.543 3.3-1.574 4.699a.402.402 0 0 0-.078.273c.117 1.403.414 3.184 1.133 4.453-.875-.183-2.207-.52-3.442-1.054zm0 0"/>
</svg>
